icon/ir/bubble-error.svg

<svg stroke-width="1.5" viewBox="0 0 24 24" fill="none" xmlns="http://www.w3.org/2000/svg" height="1em" width="1em">
  <path d="M13 2.04938C12.6711 2.01672 12.3375 2 12 2C6.47715 2 2 6.47715 2 12C2 13.8214 2.48697 15.5291 3.33782 17L2.5 21.5L7 20.6622C8.47087 21.513 10.1786 22 12 22C17.5228 22 22 17.5228 22 12C22 11.6625 21.9833 11.3289 21.9506 11" stroke="currentColor" stroke-linecap="round" stroke-linejoin="round"/>
  <path d="M17.1211 7.36398L19.2424 5.24266M19.2424 5.24266L21.3637 3.12134M19.2424 5.24266L17.1211 3.12134M19.2424 5.24266L21.3637 7.36398" stroke="currentColor" stroke-linecap="round" stroke-linejoin="round"/>
</svg>

<svg width="24" height="24" stroke-width="1.5" fill="none" xmlns="http://www.w3.org/2000/svg"><path d="M13 2.05c-.329-.033-.662-.05-1-.05C6.477 2 2 6.477 2 12c0 1.821.487 3.53 1.338 5L2.5 21.5l4.5-.838A9.955 9.955 0 0 0 12 22c5.523 0 10-4.477 10-10 0-.338-.017-.671-.05-1M17.121 7.364l2.121-2.121m0 0 2.122-2.122m-2.122 2.122-2.12-2.122m2.12 2.122 2.122 2.121" stroke="currentColor" stroke-linecap="round" stroke-linejoin="round"/></svg>
